svgs/mail-alt-svgrepo-com.svg

<?xml version="1.0" encoding="UTF-8" standalone="no"?>
<!-- Uploaded to: SVG Repo, www.svgrepo.com, Generator: SVG Repo Mixer Tools -->

<svg
   width="800px"
   height="800px"
   viewBox="0 0 24 24"
   fill="none"
   version="1.1"
   id="svg1"
   sodipodi:docname="mail-alt-svgrepo-com.svg"
   inkscape:version="1.3.2 (091e20e, 2023-11-25, custom)"
   xmlns:inkscape="http://www.inkscape.org/namespaces/inkscape"
   xmlns:sodipodi="http://sodipodi.sourceforge.net/DTD/sodipodi-0.dtd"
   xmlns="http://www.w3.org/2000/svg"
   xmlns:svg="http://www.w3.org/2000/svg">
  <defs
     id="defs1" />
  <sodipodi:namedview
     id="namedview1"
     pagecolor="#ffffff"
     bordercolor="#000000"
     borderopacity="0.25"
     inkscape:showpageshadow="2"
     inkscape:pageopacity="0.0"
     inkscape:pagecheckerboard="0"
     inkscape:deskcolor="#d1d1d1"
     inkscape:zoom="1.07625"
     inkscape:cx="400"
     inkscape:cy="482.69454"
     inkscape:window-width="1920"
     inkscape:window-height="1057"
     inkscape:window-x="-8"
     inkscape:window-y="832"
     inkscape:window-maximized="1"
     inkscape:current-layer="svg1" />
  <path
     d="M 4,18 4.6625921,17.204889 9,12 m 11,6 -5,-6 M 3,8 l 7.225,4.8166 c 0.6415,0.4277 0.9622,0.6416 1.3089,0.7246 0.3064,0.0735 0.6258,0.0735 0.9322,0 0.3467,-0.083 0.6674,-0.2969 1.3089,-0.7246 L 21,8 M 6.2,19 H 10.062718 17.8 c 1.1201,0 1.6802,0 2.108,-0.218 0.3763,-0.1917 0.6823,-0.4977 0.874,-0.874 C 21,17.4802 21,16.9201 21,15.8 V 8.2 C 21,7.0799 21,6.51984 20.782,6.09202 20.5903,5.71569 20.2843,5.40973 19.908,5.21799 19.4802,5 18.9201,5 17.8,5 H 14.299652 6.2 C 5.0799,5 4.51984,5 4.09202,5.21799 3.71569,5.40973 3.40973,5.71569 3.21799,6.09202 3,6.51984 3,7.07989 3,8.2 v 7.6 c 0,1.1201 0,1.6802 0.21799,2.108 0.19174,0.3763 0.4977,0.6823 0.87403,0.874 C 4.51984,19 5.07989,19 6.2,19 Z"
     stroke="#000000"
     stroke-width="2"
     stroke-linecap="round"
     stroke-linejoin="round"
     id="path1"
     sodipodi:nodetypes="cccccccccccscsccssccscsccssccs"
     inkscape:label="path1"
     style="stroke:#f1f1f1;stroke-opacity:1" />
</svg>

<?xml version="1.0" encoding="utf-8"?><!-- Uploaded to: SVG Repo, www.svgrepo.com, Generator: SVG Repo Mixer Tools -->
<svg width="800px" height="800px" viewBox="0 0 24 24" fill="none" xmlns="http://www.w3.org/2000/svg">
<path d="M4 18L9 12M20 18L15 12M3 8L10.225 12.8166C10.8665 13.2443 11.1872 13.4582 11.5339 13.5412C11.8403 13.6147 12.1597 13.6147 12.4661 13.5412C12.8128 13.4582 13.1335 13.2443 13.775 12.8166L21 8M6.2 19H17.8C18.9201 19 19.4802 19 19.908 18.782C20.2843 18.5903 20.5903 18.2843 20.782 17.908C21 17.4802 21 16.9201 21 15.8V8.2C21 7.0799 21 6.51984 20.782 6.09202C20.5903 5.71569 20.2843 5.40973 19.908 5.21799C19.4802 5 18.9201 5 17.8 5H6.2C5.0799 5 4.51984 5 4.09202 5.21799C3.71569 5.40973 3.40973 5.71569 3.21799 6.09202C3 6.51984 3 7.07989 3 8.2V15.8C3 16.9201 3 17.4802 3.21799 17.908C3.40973 18.2843 3.71569 18.5903 4.09202 18.782C4.51984 19 5.07989 19 6.2 19Z" stroke="#000000" stroke-width="2" stroke-linecap="round" stroke-linejoin="round"/>
</svg>
